X: 21323
M: 6/8
L: 1/8
K: D
V: 1 name="3"
(3(ABc) |\
d3 d3 | d2A F2A | def fed | cee eAc |\
d3 d3 | def gab | bag age | edd d2 H|]
(3(ABc) |\
d2f c2f | d2f A2f | dcd def | fee eAc |\
d2f A2f | dcd efg | fed cBc | edd "^D.C."d2 |]
{F}FAd dcd | FAd dcd | e2f g2f | efd cBA |\


